X:12
T:12 Richer's Hornpipe
C:Welch MS
I:abc2nwc
M:C
L:1/8
K:G
Bc3/4|dBdB G2BG|AFAF D2CB,|CDEF GABc|AFDF A2Bc|
dBdB G2BG|AFAF D2CB,|C2e2dBcA|G2[G2g2][G2g2]:|
GA|BGAF E2cd|e2A2A2FG|AFAF D2Bc|d2G2G2d2|
e2ge dBdB|e2ge dBdB|c2e2dBcA|G2[G2g2][G2g2]:|


